public/img/Tools/PRIVACY.svg

<?xml version="1.0" encoding="UTF-8"?>
<svg width="100px" height="114px" viewBox="0 0 100 114" version="1.1" xmlns="http://www.w3.org/2000/svg" xmlns:xlink="http://www.w3.org/1999/xlink">
    <!-- Generator: Sketch 42 (36781) - http://www.bohemiancoding.com/sketch -->
    <title>PRIVACY</title>
    <desc>Created with Sketch.</desc>
    <defs></defs>
    <g id="Page-1" stroke="none" stroke-width="1" fill="none" fill-rule="evenodd">
        <g id="Landing-Copy-3" transform="translate(-382.000000, -2623.000000)">
            <g id="PRIVACY" transform="translate(382.000000, 2623.000000)">
                <polygon id="Fill-1" fill="#00A9C7" points="49.9995 -0.0004 0.0005 28.3336 0.0005 85.0006 49.9995 113.3326 99.9995 85.0006 99.9995 28.3336"></polygon>
                <path d="M49.9697,75.0698 C53.0407,75.0708 53.0687,75.0078 53.1157,71.8558 C53.1507,69.4928 52.8507,67.1428 54.0107,64.8318 C54.8507,63.1578 54.0177,61.4868 52.4857,60.4188 C50.9017,59.3158 49.1607,59.3008 47.5617,60.3818 C46.0167,61.4278 45.1487,63.0958 45.9737,64.7728 C47.1427,67.1498 46.8457,69.5618 46.8847,71.9898 C46.9327,74.9698 46.9977,75.0688 49.9697,75.0698 L49.9697,75.0698 Z M59.0027,51.7998 C59.0027,49.8998 59.0937,48.2088 58.9867,46.5298 C58.6227,40.8018 52.8367,36.8198 47.3817,38.5848 C42.0687,40.3038 39.9397,45.1438 41.2897,51.7998 L59.0027,51.7998 Z M67.1877,81.6668 L32.8127,81.6668 C31.3017,80.6938 30.7857,79.2918 30.7967,77.5248 C30.8407,70.4418 30.8067,63.3588 30.8177,56.2758 C30.8237,53.1398 31.3267,52.4898 34.4507,51.5728 C34.4507,50.4638 34.4387,49.3038 34.4537,48.1448 C34.5067,43.8478 35.6877,39.9598 38.6157,36.7068 C41.1527,33.8888 44.4267,32.4538 48.0467,31.6668 L51.9527,31.6668 C52.1277,31.7508 52.2947,31.8868 52.4777,31.9118 C59.3187,32.8408 64.9857,39.0318 65.3657,46.0118 C65.4697,47.9358 65.5787,49.8598 65.6827,51.7438 C68.4347,52.2748 69.1677,53.1228 69.1767,55.8858 C69.2007,63.0988 69.1597,70.3118 69.2037,77.5248 C69.2137,79.2908 68.6977,80.6938 67.1877,81.6668 L67.1877,81.6668 Z" id="Fill-2" fill="#FFFFFF"></path>
            </g>
        </g>
    </g>
</svg>

<svg width="100" height="114" viewBox="0 0 100 114" xmlns="http://www.w3.org/2000/svg"><title>PRIVACY</title><g fill="none" fill-rule="evenodd"><path fill="#00A9C7" d="M50 0L0 28.334V85l50 28.332L100 85V28.334z"/><path d="M49.97 75.07c3.07 0 3.099-.062 3.146-3.214.035-2.363-.265-4.713.895-7.024.84-1.674.007-3.345-1.525-4.413-1.584-1.103-3.325-1.118-4.924-.037-1.545 1.046-2.413 2.714-1.588 4.39 1.169 2.378.872 4.79.91 7.218.049 2.98.114 3.079 3.086 3.08zm9.033-23.27c0-1.9.09-3.591-.016-5.27-.364-5.728-6.15-9.71-11.605-7.945-5.313 1.719-7.442 6.559-6.092 13.215h17.713zm8.185 29.867H32.813c-1.511-.973-2.027-2.375-2.016-4.142.044-7.083.01-14.166.02-21.25.007-3.135.51-3.785 3.634-4.702 0-1.11-.012-2.27.003-3.428.053-4.297 1.234-8.185 4.162-11.438 2.537-2.818 5.81-4.253 9.43-5.04h3.907c.175.084.342.22.525.245 6.84.929 12.508 7.12 12.888 14.1.104 1.924.213 3.848.317 5.732 2.752.53 3.485 1.379 3.494 4.142.024 7.213-.017 14.426.027 21.639.01 1.766-.506 3.169-2.016 4.142z" fill="#FFF"/></g></svg>
